X: 80
T: Behold the Dawn
C: Teton Sioux band 1911-1914
N: Derived from sioux080.krn
O: South Dakota, U.S.A.
N: Teton Sioux Music by Frances Densmore, 1918
Z: transcribed to **kern format by Craig Sapp
L: 1/8
M: 2/4
Q: 1/4=58
K: F clef=bass
%%linebreak <none>
F F F D [I:setbarnb 2]| 
F2F2 | 
F F F D | 
D2D2 | 
D D D A, | 
A,2A,2 | 
D D D A, | 
D2D2 | 
D D D A, | 
A,2A,2 | 
A, A, A, G, | 
G,2G,2 | 
G, F, F, D, | 
D,2D,2 | 
G, G, G, F, | 
G,2G,2 | 
G, G, G, F, | 
F,2F,2 | 
D,2D,2 | 
D,4 | 
D,4 | 
D D D A, | 
A,2A,2 | 
F2(F D) | 
F2F2 | 
F2(F D) | 
D2D2 | 
(D A,) (A, G,) | 
A,2A,2 | 
A, A, A, G, | 
G,2G,2 | 
G, F, F, D, | 
D,2D,2 | 
G, G, G, F, | 
G,2G,2 | 
G, G, G, F, | 
F,2F,2 | 
D,2D,2 | 
D,4 | 
D,4 |]  



